X:1
T:Rhosymedre, 66.66.88
T:Rhosymedre, 66.66.88
T:John David Edwards, circa 1840
T:Public Domain Courtesy of the Cyber Hymnal™
C:John David Edwards, circa 1840
Z:Public Domain
Z:Courtesy of the Cyber Hymnal™
%%score ( 1 2 ) ( 3 4 )
L:1/8
Q:1/4=115
M:4/4
K:F
V:1 treble 
V:2 treble 
V:3 bass 
V:4 bass 
V:1
|: C2 | [CF]2 F2 [FG]2 [EG]2 | [FA]6 F2 | [FB]2 [FB]2 [FA]2 [EG]2 | F6 :| [Cc]2 | %6
 [CA]2 [CA]2 [DA]2 [Cc]2 | [DB]4 [CA]4 | [CG]6 [Cc]2 | [FB]2 [FA]2 [CG]2 [CF]2 | %10
 [CE]2 [CF]2 [CG]2 [CE]2 | [CF]2 [CG]2 [CA]2 [DB]2 | [CA]4 G4 | [A,F]6 |] %14
V:2
|: C2 | x2 F2 x4 | x6 F2 | x8 | F6 :| x2 | x8 | x8 | x8 | x8 | x8 | x8 | x4 C2 B,2 | x6 |] %14
V:3
|: [F,A,]2 | [F,A,]2 [D,A,]2 [C,C]2 [C,C]2 | [F,C]6 [F,A,]2 | [D,B,]2 [B,,D]2 [C,C]2 [C,B,]2 | %4
 [F,A,]6 :| [E,G,]2 | F,2 F,2 [D,F,]2 [A,,F,]2 | [B,,F,]4 [F,,F,]4 | [C,E,]6 [A,,F,]2 | %9
 [D,F,]2 [C,C]2 [B,,E,]2 [A,,F,]2 | [G,,B,]2 [F,,A,]2 [C,E,]2 [B,,G,]2 | %11
 [A,,F,]2 [C,E,]2 F,2 [B,,F,]2 | [C,F,]4 [C,E,]4 | F,6 |] %14
V:4
|: x2 | x8 | x8 | x8 | x6 :| x2 | F,2 F,2 x4 | x8 | x8 | x8 | x8 | x4 F,2 x2 | x8 | F,6 |] %14

